X: 33
T:Bor. HA.034
M:C
L:1/4
Q:100
S:Henry Atkinson's original MS,Hartburn,N'umberland,1694.
R:Boure
O:England
A:Hartburn,Northumberland
N:
H:1/4
Z:vmp.Chris Partington.Jan.2004
K:Bb
"No Key Sig."G|GA/B/Ad|BA/G/^FE/E/|GA/B/Ad|B2G||!
A|Bc/d/cf|dc/B/cF|BA/G/ed|c2B2|!
AA/B/cA|dGF>f|d(c/B/) (A/B/) c|B2G|]
